assets/icons/controls.svg

<svg width="24" height="24" viewBox="0 0 24 24" xmlns="http://www.w3.org/2000/svg" xmlns:xlink="http://www.w3.org/1999/xlink">
  <defs>
    <path id="path-1" d="M12 1.0042L12 0.0042 0.9944 0.0042 0.9944 1.0042z"/>
    <path id="path-3" d="M1.35525272e-20 0.0042L1.35525272e-20 5.0122 16.4918 5.0122 16.4918 0.0042 0 0.0042z"/>
    <path id="path-5" d="M12 1.0021L12 0.0021 0.9942 0.0021 0.9942 1.0021 12 1.0021z"/>
    <path id="path-7" d="M2.71050543e-20 0.0042L2.71050543e-20 5.0102 7.4958 5.0102 7.4958 0.0042 0 0.0042z"/>
    <path id="path-9" d="M0.0001 5L7.4961 5 7.4961 0.0042 0.0001 0.0042z"/>
  </defs>
  <g id="Styleguide" fill="none" fill-rule="evenodd">
    <g id="Base-Style---Icons" transform="translate(-220 -573)">
      <g id="Controls" transform="translate(205 573)">
        <g id="controls" transform="translate(16 2)">
          <g id="Group-3" transform="translate(10 2.996)">
            <mask id="mask-2" fill="#fff">
              <use xlink:href="#path-1"/>
            </mask>
            <path d="M1.4944,1.0042 L11.5004,1.0042 C11.7764,1.0042 12.0004,0.7802 12.0004,0.5042 C12.0004,0.2282 11.7764,0.0042 11.5004,0.0042 L1.4944,0.0042 C1.2184,0.0042 0.9944,0.2282 0.9944,0.5042 C0.9944,0.7802 1.2184,1.0042 1.4944,1.0042" id="Fill-1" fill="#999" mask="url(#mask-2)"/>
          </g>
          <g id="Group-6" transform="translate(0 7.996)">
            <mask id="mask-4" fill="#fff">
              <use xlink:href="#path-3"/>
            </mask>
            <path d="M0.4998,3.0042 L12.4938,3.0042 L12.4938,4.4862 C12.4938,4.7762 12.7288,5.0122 13.0188,5.0122 L15.9658,5.0122 C16.2558,5.0122 16.4918,4.7762 16.4918,4.4862 L16.4918,0.5302 C16.4918,0.2392 16.2558,0.0042 15.9658,0.0042 L13.0188,0.0042 C12.7288,0.0042 12.4938,0.2392 12.4938,0.5302 L12.4938,2.0042 L0.4998,2.0042 C0.2238,2.0042 -0.0002,2.2282 -0.0002,2.5042 C-0.0002,2.7802 0.2238,3.0042 0.4998,3.0042" id="Fill-4" fill="#999" mask="url(#mask-4)"/>
          </g>
          <g id="Group-9" transform="translate(10 16.996)">
            <mask id="mask-6" fill="#fff">
              <use xlink:href="#path-5"/>
            </mask>
            <path d="M11.5002,0.0021 L1.4942,0.0021 C1.2182,0.0021 0.9942,0.2261 0.9942,0.5021 C0.9942,0.7781 1.2182,1.0021 1.4942,1.0021 L11.5002,1.0021 C11.7762,1.0021 12.0002,0.7781 12.0002,0.5021 C12.0002,0.2261 11.7762,0.0021 11.5002,0.0021" id="Fill-7" fill="#999" mask="url(#mask-6)"/>
          </g>
          <g id="Group-12" transform="translate(0 .996)">
            <mask id="mask-8" fill="#fff">
              <use xlink:href="#path-7"/>
            </mask>
            <path d="M0.4998,3.0042 L3.4978,3.0042 L3.4978,4.4842 C3.4978,4.7742 3.7328,5.0102 4.0238,5.0102 L6.9698,5.0102 C7.2608,5.0102 7.4958,4.7742 7.4958,4.4842 L7.4958,0.5302 C7.4958,0.2392 7.2608,0.0042 6.9698,0.0042 L4.0238,0.0042 C3.7328,0.0042 3.4978,0.2392 3.4978,0.5302 L3.4978,2.0042 L0.4998,2.0042 C0.2238,2.0042 -0.0002,2.2282 -0.0002,2.5042 C-0.0002,2.7802 0.2238,3.0042 0.4998,3.0042" id="Fill-10" fill="#999" mask="url(#mask-8)"/>
          </g>
          <path d="M21.4895,10 L19.4865,10 C19.2105,10 18.9865,10.224 18.9865,10.5 C18.9865,10.776 19.2105,11 19.4865,11 L21.4895,11 C21.7655,11 21.9895,10.776 21.9895,10.5 C21.9895,10.224 21.7655,10 21.4895,10" id="Fill-13" fill="#999"/>
          <g id="Group-17" transform="translate(0 14.996)">
            <mask id="mask-10" fill="#fff">
              <use xlink:href="#path-9"/>
            </mask>
            <path d="M6.9701,0.0042 L4.0231,0.0042 C3.7331,0.0042 3.4981,0.2392 3.4981,0.5302 L3.4981,2.0042 L0.5001,2.0042 C0.2231,2.0042 0.0001,2.2282 0.0001,2.5042 C0.0001,2.7802 0.2231,3.0042 0.5001,3.0042 L3.4981,3.0042 L3.4981,4.4742 C3.4981,4.7642 3.7331,5.0002 4.0231,5.0002 L6.9701,5.0002 C7.2601,5.0002 7.4961,4.7642 7.4961,4.4742 L7.4961,0.5302 C7.4961,0.2392 7.2601,0.0042 6.9701,0.0042" id="Fill-15" fill="#999" mask="url(#mask-10)"/>
          </g>
        </g>
      </g>
    </g>
  </g>
</svg>

<svg width="24" height="24" viewBox="0 0 24 24" xmlns="http://www.w3.org/2000/svg" xmlns:xlink="http://www.w3.org/1999/xlink">
  <defs>
    <path id="a" d="M12 1.004v-1H.994v1z"/>
    <path id="c" d="M0 .004v5.008h16.492V.004H0z"/>
    <path id="e" d="M12 1.002v-1H.994v1H12z"/>
    <path id="g" d="M0 .004V5.01h7.496V.004H0z"/>
    <path id="i" d="M0 5h7.496V.004H0z"/>
  </defs>
  <g fill="none" fill-rule="evenodd">
    <g transform="translate(11 4.996)">
      <mask id="b" fill="#fff">
        <use xlink:href="#a"/>
      </mask>
      <path d="M1.494 1.004H11.5a.5.5 0 0 0 0-1H1.494a.5.5 0 0 0 0 1" fill="#999" mask="url(#b)"/>
    </g>
    <g transform="translate(1 9.996)">
      <mask id="d" fill="#fff">
        <use xlink:href="#c"/>
      </mask>
      <path d="M.5 3.004h11.994v1.482c0 .29.235.526.525.526h2.947c.29 0 .526-.236.526-.526V.53a.526.526 0 0 0-.526-.526h-2.947a.525.525 0 0 0-.525.526v1.474H.5a.5.5 0 0 0 0 1" fill="#999" mask="url(#d)"/>
    </g>
    <g transform="translate(11 18.996)">
      <mask id="f" fill="#fff">
        <use xlink:href="#e"/>
      </mask>
      <path d="M11.5.002H1.494a.5.5 0 0 0 0 1H11.5a.5.5 0 0 0 0-1" fill="#999" mask="url(#f)"/>
    </g>
    <g transform="translate(1 2.996)">
      <mask id="h" fill="#fff">
        <use xlink:href="#g"/>
      </mask>
      <path d="M.5 3.004h2.998v1.48c0 .29.235.526.526.526H6.97a.526.526 0 0 0 .526-.526V.53A.525.525 0 0 0 6.97.004H4.024a.525.525 0 0 0-.526.526v1.474H.5a.5.5 0 0 0 0 1" fill="#999" mask="url(#h)"/>
    </g>
    <path d="M22.49 12h-2.003a.5.5 0 0 0 0 1h2.003a.5.5 0 0 0 0-1" fill="#999"/>
    <g transform="translate(1 16.996)">
      <mask id="j" fill="#fff">
        <use xlink:href="#i"/>
      </mask>
      <path d="M6.97.004H4.023a.525.525 0 0 0-.525.526v1.474H.5a.5.5 0 1 0 0 1h2.998v1.47c0 .29.235.526.525.526H6.97c.29 0 .526-.236.526-.526V.53A.526.526 0 0 0 6.97.004" fill="#999" mask="url(#j)"/>
    </g>
  </g>
</svg>
